src/lib/packages/icons/src/assets/line/rotate-left-square.svg

<svg width="24" height="24" viewBox="0 0 24 24" fill="none" xmlns="http://www.w3.org/2000/svg">
<path d="M16.75 12.002C16.75 14.621 14.619 16.752 12 16.752C10.185 16.752 8.55509 15.741 7.74609 14.113C7.56109 13.742 7.71298 13.2919 8.08398 13.1079C8.45698 12.9229 8.90609 13.076 9.09009 13.446C9.64309 14.56 10.758 15.252 12 15.252C13.792 15.252 15.25 13.794 15.25 12.002C15.25 10.21 13.792 8.75195 12 8.75195C11.021 8.75195 10.1221 9.19795 9.51709 9.91895H10.2229C10.6369 9.91895 10.9729 10.2549 10.9729 10.6689C10.9729 11.0829 10.6369 11.4189 10.2229 11.4189H8C7.586 11.4189 7.25 11.0829 7.25 10.6689V8.44702C7.25 8.03302 7.586 7.69702 8 7.69702C8.414 7.69702 8.75 8.03302 8.75 8.44702V8.54492C9.612 7.73592 10.764 7.25293 12 7.25293C14.619 7.25193 16.75 9.38295 16.75 12.002ZM21.75 6.375V17.625C21.75 20.285 20.285 21.75 17.625 21.75H6.375C3.715 21.75 2.25 20.285 2.25 17.625V6.375C2.25 3.715 3.715 2.25 6.375 2.25H17.625C20.285 2.25 21.75 3.715 21.75 6.375ZM20.25 6.375C20.25 4.535 19.465 3.75 17.625 3.75H6.375C4.535 3.75 3.75 4.535 3.75 6.375V17.625C3.75 19.465 4.535 20.25 6.375 20.25H17.625C19.465 20.25 20.25 19.465 20.25 17.625V6.375Z" fill="currentColor"/>
</svg>

<svg xmlns="http://www.w3.org/2000/svg" width="24" height="24" fill="none"><path fill="currentColor" d="M16.75 12.002a4.756 4.756 0 0 1-4.75 4.75 4.724 4.724 0 0 1-4.254-2.639.75.75 0 0 1 1.344-.667A3.23 3.23 0 0 0 12 15.252a3.254 3.254 0 0 0 3.25-3.25A3.254 3.254 0 0 0 12 8.752c-.979 0-1.878.446-2.483 1.167h.706a.75.75 0 0 1 0 1.5H8a.75.75 0 0 1-.75-.75V8.447a.75.75 0 0 1 1.5 0v.098A4.748 4.748 0 0 1 12 7.253a4.754 4.754 0 0 1 4.75 4.749Zm5-5.627v11.25c0 2.66-1.465 4.125-4.125 4.125H6.375c-2.66 0-4.125-1.465-4.125-4.125V6.375c0-2.66 1.465-4.125 4.125-4.125h11.25c2.66 0 4.125 1.465 4.125 4.125Zm-1.5 0c0-1.84-.785-2.625-2.625-2.625H6.375c-1.84 0-2.625.785-2.625 2.625v11.25c0 1.84.785 2.625 2.625 2.625h11.25c1.84 0 2.625-.785 2.625-2.625V6.375Z"/></svg>
